Adwaita++-Light/panel/22/laptopattention.svg

<svg height="22" width="22" xmlns="http://www.w3.org/2000/svg">
  <path d="m4 4c-.554 0-1 .446-1 1v10c0 .554.446 1 1 1h-2v1c0 .554.892 1 2 1h13v-3h-12v-9h12v3h2v-4c0-.554-.446-1-1-1zm5 12h4v1h-4z" fill="#444"/>
  <path d="m18 10v4l.25 2h1.5l.25-2v-4zm0 7v2h2v-2z" fill="#4285f4"/>
</svg>

<svg xmlns="http://www.w3.org/2000/svg" width="22" height="22" version="1.1">
 <defs>
  <style id="current-color-scheme" type="text/css">
   .ColorScheme-Text { color:#444444; } .ColorScheme-Highlight { color:#4285f4; }
  </style>
 </defs>
 <path style="fill:currentColor" class="ColorScheme-Text" d="M 4 4 C 3.446 4 3 4.446 3 5 L 3 15 C 3 15.554 3.446 16 4 16 L 2 16 L 2 17 C 2 17.554 2.892 18 4 18 L 17 18 L 17 15 L 5 15 L 5 6 L 17 6 L 17 9 L 19 9 L 19 5 C 19 4.446 18.554 4 18 4 L 4 4 z M 9 16 L 13 16 L 13 17 L 9 17 L 9 16 z"/>
 <path style="fill:currentColor" class="ColorScheme-Highlight" d="M 18,10 V 14 L 18.25,16 H 19.75 L 20,14 V 10 Z M 18,17 V 19 H 20 V 17 Z"/>
</svg>
